X:146
T:The Bay and the Grey
B:Joyce, P. W.; "Old Irish Folk Music and Songs"
R:jig/song air
L:1/8
M:6/8
K:G
GBd g3|agf g3|d2 g fdc|B3 A3|
GBd =f3|g=fe f3|d2 g fdc|B3 G3||
BGB ded/c/|BGB ded/c/|Bcd edc|B3 dcB|
AFG cec|AFA cec|Bcd edc|B3 G3||
